!!!COM: Anon.
!!!OTL: Need I Be Afraid
!!!ODT: <1918//
!!!MPN: Matsiwirus [Pine Wood, Pan]
!!!MLC: Fort Berthold Reservation, North Dakota, United States of America
!! Song was recorded during either the summer of 1912, 1915, or 1918.
!!!AGN: monody
!!!AST: Mandan and Hidatsa Men's Fox Society
!!!AMT: irregular
!!!RWG: Transcribed pitches, durations, and meters are only approximate.
!! Drum Tempo: MM56
!! Drum-rhythm: (8 8) (8 8) (8 8) (8 8)
**kern
*ICvox
*Imale
*clefF4
*k[f#c#g#]
*M2/4
*MM56
=1-
8.c#
16e
16e
8.c#
*M3/4
=2
4e
16c#
8.c#
16B
8.A
*M2/4
=3
16B
8B
16A
4B
*M3/4
=4
4A
(8.A
16F#)
(16F#
8.E)
*M2/4
=5
16F#
8F#
16E
(16F#
8.E)
=6
2C#
=7
8C#
[8C#
8C#]
8C#
=8
2C#
==
*-
!!!CNT: Hidatsa
!!!TXO: Hidatsa
!!!OCY: United States
!!!OCL: Frances Densmore
!!!YOR: Frances Densmore, "Mandan and Hidatsa Music",
!!!YOR: Bulletin 80, page 121, No. 51
!!!PPR: Smithsonian Institution, Bureau of American Ethnology
!!!PPR: Government Printing Office
!!!PDT: 1923
!!!PPP: Washington, DC, United States of America
!!!YEC: Electronic Copyright 2000 David Huron
!!!YER: August 2000
!!!YEN: United States of America
!!!ENC: David Huron
!!!RDT: August 17, 2000
!!!EEV: Release 1.0
!!!AIN: tom, vox
